src/assets/images/components/page/PageHeader/menu-dropdown-usecase-icon-remoteteams.svg

<svg fill="none" height="28" viewBox="0 0 43 28" width="43" xmlns="http://www.w3.org/2000/svg"><g fill="#000"><path d="m8.71218 13.4105c2.32502 0 4.31392-2.0791 4.31392-4.75498 0-2.61422-2.0049-4.62281-4.31392-4.62281-2.32078 0-4.32773 2.03742-4.31601 4.64414.00211 2.66415 1.98891 4.73365 4.31601 4.73365zm-6.78398 9.8934h13.5562c1.2181 0 1.9282-.577 1.9282-1.5447 0-2.7588-3.1846-6.5079-8.71003-6.5079-5.51789 0-8.70257 3.7491-8.70257 6.5079 0 .9677.702654 1.5447 1.9282 1.5447zm31.7072-9.8934c2.325 0 4.316-2.0791 4.316-4.75498 0-2.61422-2.0048-4.62281-4.316-4.62281-2.3208 0-4.3277 2.03742-4.316 4.64414.0021 2.66415 1.991 4.73365 4.316 4.73365zm-6.784 9.8934h13.5584c1.2159 0 1.926-.577 1.926-1.5447 0-2.7588-3.1846-6.5079-8.71-6.5079-5.5158 0-8.7026 3.7491-8.7026 6.5079 0 .9677.7027 1.5447 1.9282 1.5447z"/><path d="m16.5555 14.3636c.8988 0 1.6176-.7189 1.6176-1.6198 0-.8892-.7188-1.6081-1.6176-1.6081-.8914 0-1.6102.7189-1.6102 1.6081 0 .9009.7188 1.6198 1.6102 1.6198zm4.616 0c.8892 0 1.608-.7189 1.608-1.6198 0-.8892-.7188-1.6081-1.608-1.6081-.9009 0-1.6081.7189-1.6081 1.6081 0 .9009.7072 1.6198 1.6081 1.6198zm4.5947 0c.8988 0 1.6176-.7189 1.6176-1.6198 0-.8892-.7188-1.6081-1.6176-1.6081-.8914 0-1.6081.7189-1.6081 1.6081 0 .9009.7167 1.6198 1.6081 1.6198z"/></g></svg>

<svg width="43" height="28" viewBox="0 0 43 28" fill="none" xmlns="http://www.w3.org/2000/svg">
<path d="M8.71218 13.4105C11.0372 13.4105 13.0261 11.3314 13.0261 8.65552C13.0261 6.0413 11.0212 4.03271 8.71218 4.03271C6.3914 4.03271 4.38445 6.07013 4.39617 8.67685C4.39828 11.341 6.38508 13.4105 8.71218 13.4105ZM1.9282 23.3039H15.4844C16.7025 23.3039 17.4126 22.7269 17.4126 21.7592C17.4126 19.0004 14.228 15.2513 8.70257 15.2513C3.18468 15.2513 0 19.0004 0 21.7592C0 22.7269 0.702654 23.3039 1.9282 23.3039ZM33.6354 13.4105C35.9604 13.4105 37.9514 11.3314 37.9514 8.65552C37.9514 6.0413 35.9466 4.03271 33.6354 4.03271C31.3146 4.03271 29.3077 6.07013 29.3194 8.67685C29.3215 11.341 31.3104 13.4105 33.6354 13.4105ZM26.8514 23.3039H40.4098C41.6257 23.3039 42.3358 22.7269 42.3358 21.7592C42.3358 19.0004 39.1512 15.2513 33.6258 15.2513C28.11 15.2513 24.9232 19.0004 24.9232 21.7592C24.9232 22.7269 25.6259 23.3039 26.8514 23.3039Z" fill="black"/>
<path d="M16.5555 14.3636C17.4543 14.3636 18.1731 13.6447 18.1731 12.7438C18.1731 11.8546 17.4543 11.1357 16.5555 11.1357C15.6641 11.1357 14.9453 11.8546 14.9453 12.7438C14.9453 13.6447 15.6641 14.3636 16.5555 14.3636ZM21.1715 14.3636C22.0607 14.3636 22.7795 13.6447 22.7795 12.7438C22.7795 11.8546 22.0607 11.1357 21.1715 11.1357C20.2706 11.1357 19.5634 11.8546 19.5634 12.7438C19.5634 13.6447 20.2706 14.3636 21.1715 14.3636ZM25.7662 14.3636C26.665 14.3636 27.3838 13.6447 27.3838 12.7438C27.3838 11.8546 26.665 11.1357 25.7662 11.1357C24.8748 11.1357 24.1581 11.8546 24.1581 12.7438C24.1581 13.6447 24.8748 14.3636 25.7662 14.3636Z" fill="black"/>
</svg>
